X:1090
T: Carlow Tinker
T: R\'il an Tinc\'eara
S: B.Breathnach:"Ceol Rince na hEireann" IV/145
Z: B.Black
L: 1/8
M: 4/4
R: reel
K: Amix
gf|eA (3cBA g2 fg|eABA GBdg|eA (3cBA g2 fg|afge d2 gf|
eA (3cBA g2 fg|eABA GBdg|eA (3cBA g2 fg|(3agf ge d2 :|
cd|eaag eg g2|eaag edcd|eaag eg g2|(3agf ge d2 cd|
eaag eg g2|eaag edcd|edcd efge|afge d2 :|
